DEF robobipbop
PTP $POS_ACT
$VEL.CP = 1.54
LIN {X 1021.753048, Y -544.629351, Z 632.716696, A 123.000000, B 123.000000, C 123.000000}
$VEL.CP = 1.54
LIN {X 1022.001217, Y -543.110220, Z 632.659682, A 123.000000, B 123.000000, C 123.000000}
$VEL.CP = 1.34
LIN {X 1022.183452, Y -541.788530, Z 632.530942, A 123.000000, B 123.000000, C 123.000000}
$VEL.CP = 1.15
LIN {X 1022.247519, Y -540.655264, Z 632.403413, A 123.000000, B 123.000000, C 123.000000}
$VEL.CP = 0.86
LIN {X 1022.398701, Y -539.810622, Z 632.318827, A 123.000000, B 123.000000, C 123.000000}
$VEL.CP = 0.67
LIN {X 1022.452035, Y -539.143363, Z 632.258808, A 123.000000, B 123.000000, C 123.000000}
$VEL.CP = 0.46
LIN {X 1022.715802, Y -538.764681, Z 632.289667, A 123.000000, B 123.000000, C 123.000000}
$VEL.CP = 0.42
LIN {X 1022.952949, Y -538.419242, Z 632.317246, A 123.000000, B 123.000000, C 123.000000}
$VEL.CP = 0.37
LIN {X 1022.927641, Y -538.054413, Z 632.291846, A 123.000000, B 123.000000, C 123.000000}
$VEL.CP = 0.44
LIN {X 1022.957397, Y -537.615385, Z 632.278006, A 123.000000, B 123.000000, C 123.000000}
$VEL.CP = 0.59
LIN {X 1022.904397, Y -537.031753, Z 632.261864, A 123.000000, B 123.000000, C 123.000000}
$VEL.CP = 0.81
LIN {X 1022.793042, Y -536.230384, Z 632.206368, A 123.000000, B 123.000000, C 123.000000}
$VEL.CP = 0.92
LIN {X 1022.860364, Y -535.313921, Z 632.196721, A 123.000000, B 123.000000, C 123.000000}
$VEL.CP = 0.91
LIN {X 1022.841143, Y -534.406581, Z 632.202590, A 123.000000, B 123.000000, C 123.000000}
$VEL.CP = 0.99
LIN {X 1022.901539, Y -533.422760, Z 632.206240, A 123.000000, B 123.000000, C 123.000000}
$VEL.CP = 1.00
LIN {X 1023.336332, Y -532.524807, Z 632.295177, A 123.000000, B 123.000000, C 123.000000}
$VEL.CP = 0.66
LIN {X 1022.958945, Y -533.067512, Z 632.301099, A 123.000000, B 123.000000, C 123.000000}
$VEL.CP = 1.05
LIN {X 1023.092978, Y -532.033911, Z 632.261155, A 123.000000, B 123.000000, C 123.000000}
$VEL.CP = 1.60
LIN {X 1024.383019, Y -531.116059, Z 632.459465, A 123.000000, B 123.000000, C 123.000000}
$VEL.CP = 0.98
LIN {X 1024.488419, Y -530.145518, Z 632.509836, A 123.000000, B 123.000000, C 123.000000}
END
