&ACCESS RVP
&REL 1
&PARAM TEMPLATE_NAME = "LIN"
&PARAM EDITMASK = "KUKATP"
DEF KUKA_POINTS()
   ; X Y Z in mm, A B C in deg, Speed in mm/s
   $VEL.CP = 1 ; mm/s
   LIN {X 10217.107880, Y -5471.985400, Z 6328.011150, A -97.604650, B 9.465808, C -174.271067
   $VEL.CP = 88 ; mm/s
   LIN {X 10253.605000, Y -5246.397990, Z 6326.522750, A -101.946795, B 8.324945, C -174.805209
   $VEL.CP = 130 ; mm/s
   LIN {X 10246.488110, Y -4817.979340, Z 6307.292040, A -105.450380, B 8.172913, C -173.988988
   $VEL.CP = 208 ; mm/s
   LIN {X 10276.685090, Y -4718.674690, Z 6309.785850, A -105.237767, B 8.498933, C -175.061036
   $VEL.CP = 227 ; mm/s
   LIN {X 10250.778260, Y -4608.885930, Z 6298.748710, A -105.178158, B 8.964821, C -174.128620
   $VEL.CP = 221 ; mm/s
   LIN {X 10284.552250, Y -4481.145450, Z 6305.590000, A -106.682453, B 8.763253, C -175.693689
   $VEL.CP = 201 ; mm/s
   LIN {X 10237.439510, Y -4021.942100, Z 6287.610830, A -109.198792, B 8.368840, C -176.040213
   $VEL.CP = 219 ; mm/s
   LIN {X 10108.362320, Y -3423.805000, Z 6277.169860, A -111.379282, B 7.935776, C -175.037403
   $VEL.CP = 219 ; mm/s
   LIN {X 10080.715170, Y -3097.114070, Z 6271.293080, A -114.400445, B 8.237748, C -175.907532
   $VEL.CP = 219 ; mm/s
   LIN {X 10105.936310, Y -2334.092910, Z 6244.397920, A -118.975387, B 10.332018, C 179.601751
   $VEL.CP = 218 ; mm/s
   LIN {X 10001.537490, Y -1515.827280, Z 6233.221740, A -123.453542, B 11.055689, C 179.386423
   $VEL.CP = 204 ; mm/s
   LIN {X 10038.822270, Y -988.311900, Z 6213.440800, A -129.150841, B 9.923551, C 178.251607
   $VEL.CP = 198 ; mm/s
   LIN {X 9993.513540, Y -557.835520, Z 6192.595340, A -132.453128, B 10.058756, C 179.032484
   $VEL.CP = 178 ; mm/s
   LIN {X 9989.191150, Y -260.036560, Z 6144.420660, A -134.511112, B 10.905634, C 178.102008
   $VEL.CP = 149 ; mm/s
   LIN {X 10058.558930, Y 191.329370, Z 6090.308170, A -138.308058, B 10.518850, C 177.059371
   $VEL.CP = 134 ; mm/s
   LIN {X 10061.833430, Y 484.749110, Z 5962.671690, A -140.577755, B 12.228151, C 176.095424
   $VEL.CP = 114 ; mm/s
   LIN {X 10115.203990, Y 679.823200, Z 5929.942340, A -143.126440, B 12.519507, C 175.214440
   $VEL.CP = 104 ; mm/s
   LIN {X 10195.755030, Y 785.670110, Z 5988.620890, A -145.283129, B 12.761136, C 175.199700
   $VEL.CP = 96 ; mm/s
   LIN {X 10293.330580, Y 820.308460, Z 6057.363110, A -146.816539, B 12.771300, C 175.354666
   $VEL.CP = 115 ; mm/s
   LIN {X 10435.603540, Y 786.328800, Z 6089.033340, A -147.403075, B 11.546023, C 175.669886
   $VEL.CP = 160 ; mm/s
   LIN {X 10700.982210, Y 677.054800, Z 6097.895260, A -148.601883, B 9.284799, C 176.050196
   $VEL.CP = 183 ; mm/s
   LIN {X 10966.681830, Y 526.903190, Z 6150.267010, A -149.073353, B 8.910939, C 176.042530
   $VEL.CP = 167 ; mm/s
   LIN {X 11404.353300, Y 259.829490, Z 6207.947650, A -149.711813, B 8.434924, C 175.668904
   $VEL.CP = 168 ; mm/s
   LIN {X 11918.801600, Y -51.782680, Z 6219.944380, A -153.444291, B 8.067637, C 174.565176
   $VEL.CP = 130 ; mm/s
   LIN {X 12165.831360, Y -239.285980, Z 6225.618570, A -154.143095, B 7.508137, C 174.833568
   $VEL.CP = 46 ; mm/s
   LIN {X 12694.183660, Y -744.266020, Z 6235.680440, A -153.434174, B 7.045182, C 175.871561
   $VEL.CP = 175 ; mm/s
   LIN {X 13808.901030, Y -1323.219110, Z 6225.200100, A -150.739851, B 5.718037, C 174.284812
   $VEL.CP = 233 ; mm/s
   LIN {X 14299.566640, Y -1675.695490, Z 6213.428370, A -149.571370, B 4.846411, C 175.510243
   $VEL.CP = 211 ; mm/s
   LIN {X 14863.745250, Y -2182.284090, Z 6206.908340, A -145.790811, B 3.014576, C 177.720285
   $VEL.CP = 204 ; mm/s
   LIN {X 15078.176860, Y -2597.846370, Z 6214.339830, A -141.792698, B 3.486709, C 178.444730
   $VEL.CP = 180 ; mm/s
   LIN {X 15202.199800, Y -3231.547800, Z 6233.337210, A -137.294688, B 4.644439, C 179.691766
   $VEL.CP = 177 ; mm/s
   LIN {X 15205.128540, Y -3389.737420, Z 6240.978870, A -136.113633, B 4.225669, C -179.624836
   $VEL.CP = 136 ; mm/s
   LIN {X 15138.350960, Y -3623.724370, Z 6239.707960, A -133.745925, B 5.382429, C -178.883872
   $VEL.CP = 157 ; mm/s
   LIN {X 15062.664880, Y -4290.208410, Z 6266.392350, A -129.174228, B 5.446485, C -178.407519
   $VEL.CP = 116 ; mm/s
   LIN {X 15107.502540, Y -4807.882340, Z 6278.828820, A -125.578402, B 7.985240, C -179.342154
   $VEL.CP = 110 ; mm/s
   LIN {X 15159.830670, Y -4963.682190, Z 6290.558990, A -124.992560, B 7.381362, C 179.278550
   $VEL.CP = 123 ; mm/s
   LIN {X 15056.102880, Y -5316.674930, Z 6305.198010, A -123.511803, B 6.120452, C -178.553305
   $VEL.CP = 134 ; mm/s
   LIN {X 14802.156800, Y -5725.161780, Z 6319.377020, A -120.395876, B 7.450292, C -179.030692
   $VEL.CP = 140 ; mm/s
   LIN {X 14463.425200, Y -5857.464050, Z 6321.032510, A -119.191901, B 7.952379, C -178.092378
   $VEL.CP = 178 ; mm/s
   LIN {X 14253.870860, Y -5893.998340, Z 6323.393380, A -117.998706, B 8.843438, C -178.212261
   $VEL.CP = 184 ; mm/s
   LIN {X 13943.011880, Y -5919.042390, Z 6322.901930, A -117.591311, B 9.587696, C -177.942845
   $VEL.CP = 223 ; mm/s
   LIN {X 13305.895620, Y -5816.530170, Z 6320.055880, A -117.562483, B 10.102926, C -177.239989
   $VEL.CP = 276 ; mm/s
   LIN {X 12509.098520, Y -5820.908830, Z 6314.768640, A -113.774487, B 10.562559, C -176.069085
   $VEL.CP = 293 ; mm/s
   LIN {X 12101.929300, Y -5788.347460, Z 6308.322280, A -111.583013, B 11.297479, C -175.676615
   $VEL.CP = 325 ; mm/s
   LIN {X 11747.067440, Y -5750.738120, Z 6297.999960, A -111.658151, B 11.314599, C -174.070202
   $VEL.CP = 236 ; mm/s
   LIN {X 10936.607710, Y -5602.399300, Z 6309.351770, A -107.206416, B 11.479073, C -173.241249
   $VEL.CP = 149 ; mm/s
   LIN {X 10507.002190, Y -5581.005930, Z 6319.863500, A -105.011781, B 10.640378, C -172.628449
   $VEL.CP = 7 ; mm/s
   LIN {X 10333.650210, Y -5541.719790, Z 6324.212310, A -95.179896, B 10.577539, C -170.878547
END
