&ACCESS RVP
&REL 1
&PARAM TEMPLATE_NAME = "LIN"
&PARAM EDITMASK = "KUKATP"
DEF KUKA_POINTS()
   ; X Y Z in mm, A B C in deg, Speed in mm/s
   $VEL.CP = 1 ; mm/s
   LIN {X 10216.248630, Y -5453.773067, Z 6327.430887, A -97.604650, B 9.465808, C -174.271067
   $VEL.CP = 132 ; mm/s
   LIN {X 10284.245733, Y -4481.893387, Z 6305.475253, A -106.595733, B 8.729920, C -175.655357
   $VEL.CP = 210 ; mm/s
   LIN {X 10106.613050, Y -3407.431657, Z 6277.784110, A -111.379282, B 7.935776, C -175.037403
   $VEL.CP = 212 ; mm/s
   LIN {X 9994.254407, Y -557.088210, Z 6192.522933, A -132.270569, B 10.107640, C 178.989263
   $VEL.CP = 156 ; mm/s
   LIN {X 10056.511363, Y 225.972927, Z 6081.969690, A -138.599255, B 10.518500, C 177.191592
   $VEL.CP = 131 ; mm/s
   LIN {X 10078.552943, Y 547.618057, Z 5938.467997, A -141.240588, B 12.099498, C 175.692190
   $VEL.CP = 105 ; mm/s
   LIN {X 10191.661073, Y 778.648607, Z 5983.885673, A -144.938819, B 12.573979, C 175.323929
   $VEL.CP = 100 ; mm/s
   LIN {X 10438.146200, Y 785.645193, Z 6088.995847, A -147.127410, B 11.618722, C 175.669810
   $VEL.CP = 168 ; mm/s
   LIN {X 11388.404547, Y 267.597483, Z 6206.207810, A -149.753946, B 8.499571, C 175.792903
   $VEL.CP = 152 ; mm/s
   LIN {X 12163.367313, Y -239.589347, Z 6225.619657, A -154.146562, B 7.478665, C 174.905865
   $VEL.CP = 46 ; mm/s
   LIN {X 12696.090570, Y -742.430977, Z 6235.836587, A -153.341433, B 7.177406, C 175.890865
   $VEL.CP = 161 ; mm/s
   LIN {X 13597.375203, Y -1199.797603, Z 6229.343513, A -151.491234, B 5.962642, C 174.326133
   $VEL.CP = 245 ; mm/s
   LIN {X 14246.957787, Y -1634.298907, Z 6213.929823, A -149.922702, B 5.167577, C 175.242244
   $VEL.CP = 212 ; mm/s
   LIN {X 14849.507710, Y -2168.102380, Z 6207.368023, A -146.131084, B 2.930180, C 177.735560
   $VEL.CP = 201 ; mm/s
   LIN {X 14978.800880, Y -2370.893240, Z 6208.979013, A -144.644127, B 3.139317, C 178.333969
   $VEL.CP = 186 ; mm/s
   LIN {X 15201.000630, Y -3233.078887, Z 6233.244293, A -137.565736, B 4.370232, C 179.870938
   $VEL.CP = 152 ; mm/s
   LIN {X 15067.949693, Y -4147.503280, Z 6264.795943, A -130.798671, B 4.857854, C -178.467494
   $VEL.CP = 120 ; mm/s
   LIN {X 15141.116870, Y -5041.721197, Z 6291.544590, A -124.844819, B 7.010140, C -179.521493
   $VEL.CP = 128 ; mm/s
   LIN {X 14808.163820, Y -5716.969143, Z 6319.203227, A -120.282309, B 7.311460, C -178.860097
   $VEL.CP = 139 ; mm/s
   LIN {X 14462.228220, Y -5857.328993, Z 6321.245517, A -119.275230, B 7.957412, C -178.141209
   $VEL.CP = 180 ; mm/s
   LIN {X 13962.425760, Y -5919.447743, Z 6323.187927, A -117.569682, B 9.409352, C -178.008830
   $VEL.CP = 222 ; mm/s
   LIN {X 13306.401293, Y -5817.973703, Z 6320.196247, A -117.843301, B 10.026521, C -177.366576
   $VEL.CP = 288 ; mm/s
   LIN {X 11785.629783, Y -5755.054997, Z 6301.304160, A -111.350998, B 11.241627, C -174.467240
   $VEL.CP = 47 ; mm/s
   LIN {X 10333.650210, Y -5541.719790, Z 6324.212310, A -95.179896, B 10.577539, C -170.878547
END
