DEF robobipbop
PTP $POS_ACT
$VEL.CP = 1.30
LIN {X 1021.943131, Y -543.927884, Z 632.687969, A -97.604650, B 9.465808, C -174.271067}
$VEL.CP = 1.30
LIN {X 1028.246637, Y -450.499051, Z 630.557189, A -105.939377, B 8.667205, C -175.121320}
$VEL.CP = 2.10
LIN {X 1010.655554, Y -338.649370, Z 627.772305, A -111.379282, B 7.935776, C -175.037403}
$VEL.CP = 2.12
LIN {X 999.758982, Y -54.057720, Z 619.120149, A -132.270569, B 10.107640, C 178.989263}
$VEL.CP = 1.57
LIN {X 1005.623274, Y 21.455506, Z 608.448131, A -138.308058, B 10.518850, C 177.059371}
$VEL.CP = 1.28
LIN {X 1008.417369, Y 56.548914, Z 593.364329, A -141.200936, B 12.114968, C 175.685238}
$VEL.CP = 1.06
LIN {X 1019.921556, Y 78.386091, Z 598.946415, A -144.938819, B 12.573979, C 175.323929}
$VEL.CP = 0.96
LIN {X 1031.697051, Y 81.531226, Z 606.596145, A -146.816539, B 12.771300, C 175.354666}
$VEL.CP = 1.33
LIN {X 1059.216328, Y 72.451448, Z 609.362232, A -148.086106, B 10.177370, C 175.931309}
$VEL.CP = 1.70
LIN {X 1177.740255, Y 4.181558, Z 621.357322, A -152.357779, B 8.362470, C 174.691477}
$VEL.CP = 0.63
LIN {X 1269.840713, Y -74.353914, Z 623.601811, A -153.341433, B 7.177406, C 175.890865}
$VEL.CP = 1.77
LIN {X 1380.691540, Y -132.406133, Z 622.480092, A -150.852795, B 5.884993, C 174.251219}
$VEL.CP = 2.22
LIN {X 1464.622421, Y -197.345970, Z 620.819088, A -147.817673, B 3.628962, C 177.189584}
$VEL.CP = 2.17
LIN {X 1487.499125, Y -220.347014, Z 620.668600, A -145.974374, B 2.958120, C 177.719367}
$VEL.CP = 2.04
LIN {X 1505.923745, Y -254.412442, Z 621.341708, A -142.678380, B 3.076313, C 178.308006}
$VEL.CP = 1.81
LIN {X 1520.462994, Y -332.523012, Z 623.693489, A -136.732840, B 4.746079, C 179.974128}
$VEL.CP = 1.49
LIN {X 1506.817434, Y -414.818364, Z 626.446372, A -130.954265, B 4.558677, C -178.306176}
$VEL.CP = 1.20
LIN {X 1514.283318, Y -503.069523, Z 629.098783, A -125.060689, B 6.986184, C 179.890843}
$VEL.CP = 1.28
LIN {X 1480.737731, Y -571.593714, Z 631.882774, A -120.701391, B 7.219334, C -178.955236}
$VEL.CP = 1.41
LIN {X 1444.259189, Y -586.082419, Z 632.124377, A -119.275230, B 7.957412, C -178.141209}
$VEL.CP = 1.79
LIN {X 1396.279565, Y -591.819079, Z 632.339860, A -117.629531, B 9.433688, C -178.223764}
$VEL.CP = 2.22
LIN {X 1330.733034, Y -581.856720, Z 632.046644, A -117.811108, B 9.945480, C -177.489571}
$VEL.CP = 2.88
LIN {X 1178.687769, Y -575.423762, Z 630.113914, A -111.388571, B 11.565790, C -174.306411}
$VEL.CP = 0.47
LIN {X 1033.365021, Y -554.171979, Z 632.421231, A -95.179896, B 10.577539, C -170.878547}
END
