DEF test1
PTP $POS_ACT
$VEL.CP = 0.18
LIN {X 1274.704271, Y 181.408717, Z 855.004351, A -104.029613, B 15.835597, C 179.142421}
$VEL.CP = 0.18
LIN {X 1294.562765, Y 190.715919, Z 855.764688, A -102.054236, B 14.997387, C 179.985942}
$VEL.CP = 0.45
LIN {X 1269.209679, Y 210.238591, Z 858.822310, A -102.687595, B 15.393159, C 179.313476}
$VEL.CP = 0.57
LIN {X 1297.290609, Y 229.965953, Z 857.998576, A -99.678549, B 14.572449, C 179.605309}
$VEL.CP = 0.57
LIN {X 1270.047693, Y 248.776240, Z 861.372699, A -99.366569, B 15.643143, C 179.153884}
$VEL.CP = 0.63
LIN {X 1299.051170, Y 270.862747, Z 861.181219, A -96.126721, B 15.684143, C -179.601447}
$VEL.CP = 0.64
LIN {X 1273.380990, Y 284.953873, Z 863.474410, A -95.917734, B 16.219207, C 179.971656}
$VEL.CP = 0.56
LIN {X 1271.046347, Y 293.911254, Z 864.662326, A -96.499164, B 16.348794, C 179.350161}
$VEL.CP = 0.78
LIN {X 1301.709429, Y 321.087097, Z 866.486752, A -93.084050, B 15.158076, C 178.837393}
$VEL.CP = 0.60
LIN {X 1273.467557, Y 342.816849, Z 874.402026, A -93.095424, B 16.294705, C 178.125347}
$VEL.CP = 0.81
LIN {X 1306.326576, Y 366.014841, Z 878.676625, A -89.960837, B 15.076708, C 177.715879}
$VEL.CP = 0.59
LIN {X 1280.049351, Y 383.825900, Z 886.876183, A -90.023975, B 16.600337, C 177.472853}
$VEL.CP = 0.72
LIN {X 1307.670033, Y 404.379971, Z 891.956150, A -87.763485, B 15.556649, C 178.088549}
$VEL.CP = 0.53
LIN {X 1283.767262, Y 418.608381, Z 898.274430, A -87.864794, B 16.909091, C 178.911649}
$VEL.CP = 0.65
LIN {X 1310.876622, Y 441.934485, Z 901.080242, A -84.066239, B 16.074201, C -178.930767}
$VEL.CP = 0.51
LIN {X 1287.936003, Y 456.443668, Z 899.312088, A -85.006606, B 17.008166, C -177.159940}
$VEL.CP = 0.58
LIN {X 1307.759877, Y 476.806676, Z 893.772674, A -84.320823, B 15.467635, C -177.355189}
$VEL.CP = 0.54
LIN {X 1287.930105, Y 496.875188, Z 891.124251, A -84.831366, B 16.539303, C -177.804576}
$VEL.CP = 0.76
LIN {X 1308.176913, Y 529.471415, Z 883.811247, A -81.916025, B 14.952312, C 179.881748}
$VEL.CP = 0.59
LIN {X 1288.170703, Y 551.046880, Z 882.294847, A -83.277641, B 15.089703, C 178.286603}
$VEL.CP = 0.59
LIN {X 1305.783060, Y 576.365847, Z 877.725659, A -80.937208, B 14.142006, C 177.973443}
$VEL.CP = 0.57
LIN {X 1285.529157, Y 596.178862, Z 876.681561, A -82.570289, B 14.882523, C 176.623095}
$VEL.CP = 0.71
LIN {X 1309.788337, Y 618.739481, Z 873.599251, A -79.828016, B 13.053454, C 176.172611}
$VEL.CP = 0.65
LIN {X 1285.581473, Y 642.411503, Z 878.448343, A -81.865852, B 13.724998, C 173.903606}
$VEL.CP = 0.62
LIN {X 1308.437296, Y 661.654950, Z 880.111227, A -79.150617, B 11.989182, C 174.150362}
$VEL.CP = 0.56
LIN {X 1287.317455, Y 684.429939, Z 879.980316, A -80.017326, B 13.360075, C 174.431365}
$VEL.CP = 0.64
LIN {X 1309.123107, Y 707.406711, Z 880.688566, A -78.448509, B 12.134952, C 175.616033}
$VEL.CP = 0.71
LIN {X 1285.260390, Y 735.336060, Z 873.832568, A -79.077444, B 12.446095, C 174.358235}
$VEL.CP = 0.70
LIN {X 1309.070568, Y 757.278039, Z 867.355656, A -77.157817, B 12.563999, C 177.345157}
$VEL.CP = 0.62
LIN {X 1286.530936, Y 781.245233, Z 863.459297, A -78.519938, B 14.966901, C 177.392760}
$VEL.CP = 0.72
LIN {X 1312.428197, Y 813.125800, Z 857.571221, A -78.291684, B 12.359858, C 174.296212}
$VEL.CP = 0.69
LIN {X 1292.143964, Y 843.140942, Z 854.633702, A -79.396540, B 13.780504, C 171.319627}
$VEL.CP = 0.70
LIN {X 1317.233826, Y 862.317172, Z 852.338326, A -79.575551, B 11.250156, C 170.363991}
$VEL.CP = 0.64
LIN {X 1294.532282, Y 901.102374, Z 849.774144, A -84.034898, B 13.751127, C 167.980063}
$VEL.CP = 0.17
LIN {X 1321.188074, Y 918.450155, Z 847.585876, A -83.986663, B 15.156355, C 169.769538}
END
