DEF test1
PTP $POS_ACT
$VEL.CP = 6.44
LIN {X 1451.971722, Y 44.445535, Z 1150.061698, A 0, B 0, C 0}
$VEL.CP = 6.44
LIN {X 1474.329648, Y 86.927624, Z 1240.868076, A 0, B 0, C 0}
$VEL.CP = 3.78
LIN {X 1494.161106, Y 76.014231, Z 1280.007096, A 0, B 0, C 0}
$VEL.CP = 3.72
LIN {X 1508.449394, Y 53.121004, Z 1292.393744, A 0, B 0, C 0}
$VEL.CP = 4.74
LIN {X 1518.724161, Y 22.102384, Z 1297.391620, A 0, B 0, C 0}
$VEL.CP = 6.30
LIN {X 1525.467724, Y -65.650452, Z 1297.550686, A 0, B 0, C 0}
$VEL.CP = 7.62
LIN {X 1518.933198, Y -125.203982, Z 1287.106407, A 0, B 0, C 0}
$VEL.CP = 8.36
LIN {X 1495.696983, Y -203.619167, Z 1245.599671, A 0, B 0, C 0}
$VEL.CP = 9.51
LIN {X 1466.724359, Y -298.347569, Z 1157.131682, A 0, B 0, C 0}
$VEL.CP = 8.75
LIN {X 1465.431651, Y -382.945558, Z 1069.080861, A 0, B 0, C 0}
$VEL.CP = 7.66
LIN {X 1477.453318, Y -446.798794, Z 1046.532572, A 0, B 0, C 0}
$VEL.CP = 3.81
LIN {X 1487.171446, Y -525.926547, Z 1044.435176, A 0, B 0, C 0}
$VEL.CP = 4.38
LIN {X 1461.515498, Y -470.562057, Z 1039.945920, A 0, B 0, C 0}
$VEL.CP = 8.09
LIN {X 1441.705337, Y -400.841765, Z 1043.829600, A 0, B 0, C 0}
$VEL.CP = 9.02
LIN {X 1429.488692, Y -331.937643, Z 1060.688141, A 0, B 0, C 0}
$VEL.CP = 9.14
LIN {X 1423.513512, Y -259.131024, Z 1097.920634, A 0, B 0, C 0}
$VEL.CP = 8.77
LIN {X 1426.432888, Y -177.212966, Z 1176.592401, A 0, B 0, C 0}
$VEL.CP = 7.11
LIN {X 1433.094068, Y -157.118242, Z 1236.747364, A 0, B 0, C 0}
$VEL.CP = 6.73
LIN {X 1439.761284, Y -163.787970, Z 1275.877204, A 0, B 0, C 0}
$VEL.CP = 6.15
LIN {X 1445.117874, Y -176.016108, Z 1296.433669, A 0, B 0, C 0}
$VEL.CP = 5.74
LIN {X 1453.024763, Y -196.986386, Z 1314.254496, A 0, B 0, C 0}
$VEL.CP = 6.00
LIN {X 1462.597651, Y -223.899231, Z 1323.053348, A 0, B 0, C 0}
$VEL.CP = 6.66
LIN {X 1471.143096, Y -255.699750, Z 1318.749392, A 0, B 0, C 0}
$VEL.CP = 7.71
LIN {X 1476.647027, Y -282.358338, Z 1304.427956, A 0, B 0, C 0}
$VEL.CP = 9.56
LIN {X 1484.858312, Y -341.728875, Z 1243.092906, A 0, B 0, C 0}
$VEL.CP = 10.14
LIN {X 1488.833695, Y -392.401821, Z 1144.140707, A 0, B 0, C 0}
$VEL.CP = 8.50
LIN {X 1486.592790, Y -413.564440, Z 1062.087302, A 0, B 0, C 0}
$VEL.CP = 4.74
LIN {X 1479.850280, Y -407.764586, Z 1010.813766, A 0, B 0, C 0}
$VEL.CP = 3.36
LIN {X 1471.175988, Y -383.086238, Z 1016.764150, A 0, B 0, C 0}
$VEL.CP = 7.68
LIN {X 1460.269224, Y -338.686848, Z 1068.365554, A 0, B 0, C 0}
$VEL.CP = 9.91
LIN {X 1455.900814, Y -304.847920, Z 1128.524170, A 0, B 0, C 0}
$VEL.CP = 10.87
LIN {X 1459.338283, Y -275.320484, Z 1198.355959, A 0, B 0, C 0}
$VEL.CP = 9.72
LIN {X 1469.282231, Y -265.298078, Z 1254.743844, A 0, B 0, C 0}
$VEL.CP = 7.77
LIN {X 1480.571574, Y -268.581124, Z 1291.650600, A 0, B 0, C 0}
$VEL.CP = 6.37
LIN {X 1495.714035, Y -289.929246, Z 1319.334869, A 0, B 0, C 0}
$VEL.CP = 6.21
LIN {X 1508.645281, Y -324.447998, Z 1324.020297, A 0, B 0, C 0}
$VEL.CP = 6.65
LIN {X 1514.202356, Y -353.614866, Z 1309.315879, A 0, B 0, C 0}
$VEL.CP = 8.78
LIN {X 1514.853238, Y -386.107512, Z 1279.992456, A 0, B 0, C 0}
$VEL.CP = 10.78
LIN {X 1502.985304, Y -496.969874, Z 1135.278904, A 0, B 0, C 0}
$VEL.CP = 11.23
LIN {X 1500.290242, Y -557.808151, Z 1069.597638, A 0, B 0, C 0}
$VEL.CP = 10.20
LIN {X 1504.541610, Y -614.005322, Z 1026.053063, A 0, B 0, C 0}
$VEL.CP = 8.28
LIN {X 1519.262920, Y -710.979714, Z 964.981663, A 0, B 0, C 0}
$VEL.CP = 4.08
LIN {X 1514.229936, Y -720.895046, Z 947.931569, A 0, B 0, C 0}
$VEL.CP = 3.44
LIN {X 1502.027769, Y -711.982532, Z 939.841696, A 0, B 0, C 0}
$VEL.CP = 5.92
LIN {X 1484.724886, Y -688.166479, Z 942.038431, A 0, B 0, C 0}
$VEL.CP = 9.02
LIN {X 1463.421270, Y -641.254765, Z 958.042266, A 0, B 0, C 0}
$VEL.CP = 10.83
LIN {X 1437.455978, Y -554.675342, Z 1017.175737, A 0, B 0, C 0}
$VEL.CP = 10.61
LIN {X 1429.029361, Y -509.921285, Z 1061.356477, A 0, B 0, C 0}
$VEL.CP = 7.93
LIN {X 1429.191729, Y -474.929368, Z 1123.348857, A 0, B 0, C 0}
$VEL.CP = 5.23
LIN {X 1434.490544, Y -474.686663, Z 1138.068303, A 0, B 0, C 0}
$VEL.CP = 4.91
LIN {X 1445.236836, Y -484.986131, Z 1150.821084, A 0, B 0, C 0}
$VEL.CP = 5.89
LIN {X 1505.522939, Y -528.198560, Z 1169.152918, A 0, B 0, C 0}
$VEL.CP = 5.28
LIN {X 1551.216424, Y -542.317002, Z 1191.241728, A 0, B 0, C 0}
$VEL.CP = 4.81
LIN {X 1582.433122, Y -531.437490, Z 1232.341156, A 0, B 0, C 0}
$VEL.CP = 5.48
LIN {X 1600.805254, Y -526.349397, Z 1289.379513, A 0, B 0, C 0}
$VEL.CP = 5.15
LIN {X 1612.242140, Y -548.785358, Z 1321.796674, A 0, B 0, C 0}
$VEL.CP = 5.26
LIN {X 1619.226922, Y -579.027099, Z 1326.875428, A 0, B 0, C 0}
$VEL.CP = 7.08
LIN {X 1622.325103, Y -624.331044, Z 1307.385714, A 0, B 0, C 0}
$VEL.CP = 8.29
LIN {X 1615.982539, Y -675.927161, Z 1254.124955, A 0, B 0, C 0}
$VEL.CP = 9.50
LIN {X 1594.108943, Y -751.459834, Z 1102.910396, A 0, B 0, C 0}
$VEL.CP = 9.21
LIN {X 1596.514279, Y -793.954136, Z 1042.991361, A 0, B 0, C 0}
$VEL.CP = 7.69
LIN {X 1602.790358, Y -826.289392, Z 1010.829990, A 0, B 0, C 0}
$VEL.CP = 7.81
LIN {X 1610.425330, Y -859.249076, Z 991.529230, A 0, B 0, C 0}
$VEL.CP = 8.09
LIN {X 1622.621410, Y -905.179550, Z 982.359391, A 0, B 0, C 0}
$VEL.CP = 3.08
LIN {X 1640.243305, Y -947.809310, Z 982.910194, A 0, B 0, C 0}
$VEL.CP = 4.41
LIN {X 1594.160204, Y -872.908945, Z 982.344263, A 0, B 0, C 0}
$VEL.CP = 7.73
LIN {X 1540.848440, Y -780.007705, Z 995.446549, A 0, B 0, C 0}
$VEL.CP = 9.11
LIN {X 1504.898883, Y -707.040072, Z 1035.765294, A 0, B 0, C 0}
$VEL.CP = 9.69
LIN {X 1490.996532, Y -659.860140, Z 1082.153258, A 0, B 0, C 0}
$VEL.CP = 10.32
LIN {X 1488.273994, Y -633.984921, Z 1126.562777, A 0, B 0, C 0}
$VEL.CP = 8.59
LIN {X 1488.701243, Y -632.341058, Z 1177.941280, A 0, B 0, C 0}
$VEL.CP = 8.10
LIN {X 1496.870621, Y -657.122887, Z 1218.766786, A 0, B 0, C 0}
$VEL.CP = 6.86
LIN {X 1503.997540, Y -680.284190, Z 1231.494904, A 0, B 0, C 0}
$VEL.CP = 4.92
LIN {X 1508.136756, Y -694.365326, Z 1230.463235, A 0, B 0, C 0}
$VEL.CP = 6.42
LIN {X 1513.703196, Y -730.648475, Z 1194.804784, A 0, B 0, C 0}
$VEL.CP = 8.92
LIN {X 1514.208174, Y -763.089440, Z 1131.485365, A 0, B 0, C 0}
$VEL.CP = 9.91
LIN {X 1512.459766, Y -775.135056, Z 1093.861288, A 0, B 0, C 0}
$VEL.CP = 8.24
LIN {X 1504.256308, Y -774.867563, Z 1045.238423, A 0, B 0, C 0}
$VEL.CP = 5.31
LIN {X 1492.815826, Y -763.963985, Z 1024.011891, A 0, B 0, C 0}
$VEL.CP = 4.11
LIN {X 1481.501564, Y -752.308054, Z 1021.948175, A 0, B 0, C 0}
$VEL.CP = 4.62
LIN {X 1464.416485, Y -739.376086, Z 1039.370173, A 0, B 0, C 0}
$VEL.CP = 6.54
LIN {X 1450.689944, Y -727.891876, Z 1074.133697, A 0, B 0, C 0}
$VEL.CP = 7.80
LIN {X 1442.584454, Y -717.861062, Z 1150.856170, A 0, B 0, C 0}
$VEL.CP = 7.95
LIN {X 1452.510744, Y -723.591464, Z 1253.318172, A 0, B 0, C 0}
$VEL.CP = 4.35
LIN {X 1449.837249, Y -718.913805, Z 1269.815916, A 0, B 0, C 0}
$VEL.CP = 2.53
LIN {X 1438.108977, Y -714.319909, Z 1269.031202, A 0, B 0, C 0}
$VEL.CP = 5.31
LIN {X 1423.722060, Y -723.302518, Z 1242.168884, A 0, B 0, C 0}
$VEL.CP = 6.98
LIN {X 1418.414872, Y -736.554158, Z 1202.921650, A 0, B 0, C 0}
$VEL.CP = 11.22
LIN {X 1419.356402, Y -766.136674, Z 1118.435576, A 0, B 0, C 0}
$VEL.CP = 12.60
LIN {X 1426.425439, Y -788.817270, Z 1074.130730, A 0, B 0, C 0}
$VEL.CP = 11.98
LIN {X 1460.252834, Y -867.679396, Z 991.095374, A 0, B 0, C 0}
$VEL.CP = 14.40
LIN {X 1480.040414, Y -915.318457, Z 965.810229, A 0, B 0, C 0}
$VEL.CP = 14.56
LIN {X 1506.263391, Y -964.518204, Z 949.574386, A 0, B 0, C 0}
$VEL.CP = 13.42
LIN {X 1575.356183, Y -1045.102462, Z 935.621776, A 0, B 0, C 0}
$VEL.CP = 10.64
LIN {X 1601.237006, Y -1063.604000, Z 934.589782, A 0, B 0, C 0}
$VEL.CP = 6.88
LIN {X 1627.679001, Y -1070.869903, Z 933.447956, A 0, B 0, C 0}
$VEL.CP = 4.30
LIN {X 1681.835509, Y -1047.240316, Z 943.642589, A 0, B 0, C 0}
$VEL.CP = 4.15
LIN {X 1730.788440, Y -965.697429, Z 949.448442, A 0, B 0, C 0}
$VEL.CP = 2.48
LIN {X 1744.751067, Y -961.905824, Z 952.614118, A 0, B 0, C 0}
$VEL.CP = 2.00
LIN {X 1761.440400, Y -968.230822, Z 954.248532, A 0, B 0, C 0}
END
