DEF robobipbop
PTP $POS_ACT
$VEL.CP = 1.31
LIN {X 1021.753048, Y -544.629351, Z 632.716696, A -97.604650, B 9.465808, C -174.271067}
$VEL.CP = 1.31
LIN {X 1028.381240, Y -449.339840, Z 630.561262, A -106.201088, B 8.709632, C -175.408669}
$VEL.CP = 2.12
LIN {X 1008.739638, Y -313.067132, Z 627.316167, A -113.882299, B 7.941792, C -175.988776}
$VEL.CP = 2.11
LIN {X 999.650804, Y -56.546664, Z 619.344511, A -131.934363, B 10.056662, C 178.866388}
$VEL.CP = 1.57
LIN {X 1005.601728, Y 20.877089, Z 608.587787, A -138.308058, B 10.518850, C 177.059371}
$VEL.CP = 1.30
LIN {X 1008.088403, Y 55.192566, Z 593.723078, A -141.240588, B 12.099498, C 175.692190}
$VEL.CP = 1.05
LIN {X 1018.837164, Y 77.428908, Z 598.141564, A -144.453288, B 12.547211, C 175.490066}
$VEL.CP = 0.99
LIN {X 1044.413605, Y 78.295214, Z 608.943268, A -147.127410, B 11.618722, C 175.669810}
$VEL.CP = 1.68
LIN {X 1139.431431, Y 26.336901, Z 620.654126, A -149.753946, B 8.499571, C 175.792903}
$VEL.CP = 1.65
LIN {X 1198.308912, Y -10.147488, Z 622.168614, A -153.533047, B 8.021576, C 174.711319}
$VEL.CP = 0.54
LIN {X 1269.710837, Y -74.288014, Z 623.588389, A -153.341433, B 7.177406, C 175.890865}
$VEL.CP = 1.90
LIN {X 1428.967901, Y -166.874475, Z 621.335438, A -149.746491, B 5.217975, C 175.394088}
$VEL.CP = 2.08
LIN {X 1497.420801, Y -236.352259, Z 620.863723, A -144.834454, B 3.029952, C 178.428217}
$VEL.CP = 1.86
LIN {X 1520.096344, Y -324.089473, Z 623.332369, A -137.565736, B 4.370232, C 179.870938}
$VEL.CP = 1.53
LIN {X 1506.811778, Y -414.325632, Z 626.457968, A -130.954265, B 4.558677, C -178.306176}
$VEL.CP = 1.20
LIN {X 1515.088388, Y -498.493721, Z 628.953464, A -124.992560, B 7.381362, C 179.278550}
$VEL.CP = 1.28
LIN {X 1481.231632, Y -571.276214, Z 631.928529, A -120.701391, B 7.219334, C -178.955236}
$VEL.CP = 1.58
LIN {X 1395.196130, Y -591.845962, Z 632.300859, A -117.569682, B 9.409352, C -178.008830}
$VEL.CP = 2.64
LIN {X 1177.283645, Y -575.354669, Z 630.152819, A -111.350998, B 11.241627, C -174.467240}
$VEL.CP = 0.46
LIN {X 1033.365021, Y -554.171979, Z 632.421231, A -95.179896, B 10.577539, C -170.878547}
END
