DEF robobipbop
PTP $POS_ACT
$VEL.CP = 1.54
LIN {X 1021.753048, Y -544.629351, Z 632.716696, A -97.604650, B 9.465808, C -174.271067}
$VEL.CP = 1.54
LIN {X 1022.001217, Y -543.110220, Z 632.659682, A -97.328358, B 10.035365, C -174.053776}
$VEL.CP = 1.34
LIN {X 1022.183452, Y -541.788530, Z 632.530942, A -97.439845, B 10.439023, C -174.290856}
$VEL.CP = 1.15
LIN {X 1022.247519, Y -540.655264, Z 632.403413, A -97.450390, B 10.846882, C -174.276625}
$VEL.CP = 0.86
LIN {X 1022.398701, Y -539.810622, Z 632.318827, A -97.319280, B 11.132993, C -174.388296}
$VEL.CP = 0.67
LIN {X 1022.452035, Y -539.143363, Z 632.258808, A -97.088837, B 11.365673, C -173.904125}
$VEL.CP = 0.46
LIN {X 1022.715802, Y -538.764681, Z 632.289667, A -97.015084, B 11.281178, C -173.917918}
$VEL.CP = 0.42
LIN {X 1022.952949, Y -538.419242, Z 632.317246, A -97.230380, B 11.113665, C -174.132743}
$VEL.CP = 0.37
LIN {X 1022.927641, Y -538.054413, Z 632.291846, A -97.188213, B 10.937728, C -174.177565}
$VEL.CP = 0.44
LIN {X 1022.957397, Y -537.615385, Z 632.278006, A -97.437108, B 10.619158, C -174.170619}
$VEL.CP = 0.59
LIN {X 1022.904397, Y -537.031753, Z 632.261864, A -97.644195, B 10.339065, C -174.113318}
$VEL.CP = 0.81
LIN {X 1022.793042, Y -536.230384, Z 632.206368, A -98.086732, B 10.074585, C -173.924440}
$VEL.CP = 0.92
LIN {X 1022.860364, Y -535.313921, Z 632.196721, A -98.168937, B 9.921980, C -173.968187}
$VEL.CP = 0.91
LIN {X 1022.841143, Y -534.406581, Z 632.202590, A -98.642076, B 9.781598, C -173.859432}
$VEL.CP = 0.99
LIN {X 1022.901539, Y -533.422760, Z 632.206240, A -98.640632, B 9.746541, C -173.570167}
$VEL.CP = 1.00
LIN {X 1023.336332, Y -532.524807, Z 632.295177, A -99.240107, B 9.671439, C -173.638582}
$VEL.CP = 1.02
LIN {X 1023.730840, Y -531.590750, Z 632.382889, A -99.813816, B 9.556087, C -173.768250}
$VEL.CP = 1.06
LIN {X 1024.093562, Y -530.597263, Z 632.423522, A -100.113597, B 9.521983, C -173.757884}
$VEL.CP = 0.94
LIN {X 1024.425300, Y -529.722174, Z 632.491439, A -100.766575, B 9.485558, C -174.281187}
$VEL.CP = 0.80
LIN {X 1024.543064, Y -528.929998, Z 632.519385, A -100.833331, B 9.382986, C -174.342245}
$VEL.CP = 0.74
LIN {X 1024.644300, Y -528.201740, Z 632.535535, A -100.954452, B 9.308894, C -174.286801}
$VEL.CP = 0.67
LIN {X 1024.739739, Y -527.540464, Z 632.549898, A -101.025113, B 9.060541, C -174.335656}
$VEL.CP = 0.73
LIN {X 1024.846871, Y -526.824305, Z 632.548420, A -101.368112, B 8.853933, C -174.583742}
$VEL.CP = 0.84
LIN {X 1024.973477, Y -525.997416, Z 632.568676, A -101.456001, B 8.664017, C -174.617894}
$VEL.CP = 1.06
LIN {X 1024.642432, Y -524.999350, Z 632.464280, A -101.618925, B 8.521528, C -174.562077}
$VEL.CP = 0.71
LIN {X 1024.848461, Y -525.668916, Z 632.526909, A -101.911521, B 8.392064, C -174.586541}
$VEL.CP = 1.16
LIN {X 1025.360500, Y -524.639799, Z 632.652275, A -101.946795, B 8.324945, C -174.805209}
$VEL.CP = 2.33
LIN {X 1023.569181, Y -523.240224, Z 632.156853, A -101.851748, B 8.429943, C -173.997039}
$VEL.CP = 1.31
LIN {X 1024.061006, Y -522.038532, Z 632.252679, A -101.726287, B 8.394902, C -174.136454}
END
